X: 368
T: The Triumph
%R: reel
Z: 2014 John Chambers <jc:trillian.mit.edu>
B: Preston "Twenty four Country Dances for the Year 1799" p.164 #2
F: http://www.vwml.org/browse/browse-collections-dance-tune-books/browse-prestons1799# 2014-8-10
N: There are two odd oval symbols below bars 5 and 6.
M: C|
L: 1/8
K: G
g |\
dBAG cAGF | Ggfe {e}d3g |\
dBAG cAGF | G2A2 G3 ::\
A2c2 B2d2 | A2c2 B2d2 |
AAAc BBBd | dcBA {A2}G4 :|\
|: B3d dcBA |\
B3d dcBA |\
B2cd efge | dcBA G4 :|
% - - - - - - - - - - - - - - - - - - - - - - - - -
%%begintext align
%% Right hands across .| Left back again :| 1st Gent:
%% take his Part.r with right hand & lead her down
%% to 3d Cu: place :|. 2d Gent cast of & go to the Rig.t
%% hand side of the 1st Lady :|: 2d Gent take each
%% hand of 1st Lady & lead her up to the top in triumph
%% .|| 1st Cu: cross over one Cu: & turn :||
%%endtext
% - - - - - - - - - - - - - - - - - - - - - - - - -

%%sep 1 1 500
%%sep 1 1 500
